X:170
M:9/8
L:1/8
K:G
|eBB BAG FDF|E2F GFG B2B|eBB BAG FDF|EFd BAF E2E:|
edB ABd e2e:|2 Bef g2g fed|edB ABd e2e|]

